svg/waves.svg

<?xml version="1.0" encoding="UTF-8" standalone="no"?>
<!-- Created with Inkscape (http://www.inkscape.org/) -->

<svg
   width="32"
   height="32"
   viewBox="0 0 8.4666666 8.4666668"
   version="1.1"
   id="svg5"
   inkscape:version="1.1.2 (b8e25be8, 2022-02-05)"
   sodipodi:docname="waves.svg"
   xmlns:inkscape="http://www.inkscape.org/namespaces/inkscape"
   xmlns:sodipodi="http://sodipodi.sourceforge.net/DTD/sodipodi-0.dtd"
   xmlns="http://www.w3.org/2000/svg"
   xmlns:svg="http://www.w3.org/2000/svg"
   xmlns:rdf="http://www.w3.org/1999/02/22-rdf-syntax-ns#"
   xmlns:cc="http://creativecommons.org/ns#">
  <sodipodi:namedview
     id="namedview7"
     pagecolor="#ffffff"
     bordercolor="#111111"
     borderopacity="1"
     inkscape:pageshadow="0"
     inkscape:pageopacity="0"
     inkscape:pagecheckerboard="1"
     inkscape:document-units="mm"
     showgrid="true"
     width="32mm"
     units="px"
     objecttolerance="10000"
     guidetolerance="10000"
     inkscape:snap-perpendicular="true"
     inkscape:snap-tangential="true"
     inkscape:zoom="23.270834"
     inkscape:cx="9.0026857"
     inkscape:cy="16.007162"
     inkscape:window-width="2560"
     inkscape:window-height="1301"
     inkscape:window-x="0"
     inkscape:window-y="25"
     inkscape:window-maximized="0"
     inkscape:current-layer="layer1">
    <inkscape:grid
       type="xygrid"
       id="grid9"
       units="px"
       empspacing="2" />
  </sodipodi:namedview>
  <defs
     id="defs2" />
  <g
     inkscape:label="Layer 1"
     inkscape:groupmode="layer"
     id="layer1">
    <path
       id="path2408"
       style="fill:#000000;fill-opacity:1;stroke:none;stroke-width:0.999999px;stroke-linecap:butt;stroke-linejoin:miter;stroke-opacity:1"
       d="M 4 0 C 4 3.7712362 12 4.2287638 12 8 C 12 11.771236 4 12.228764 4 16 C 4 19.771236 12 20.228764 12 24 C 12 27.771236 4 28.228764 4 32 L 6 32 C 6 28.228764 14 27.771236 14 24 C 14 20.228764 6 19.771236 6 16 C 6 12.228764 14 11.771236 14 8 C 14 4.2287638 6 3.7712362 6 0 L 4 0 z "
       transform="scale(0.26458333)" />
    <path
       id="path4191"
       style="fill:#000000;fill-opacity:1;stroke:none;stroke-width:0.264583px;stroke-linecap:butt;stroke-linejoin:miter;stroke-opacity:1"
       d="m 4.7625002,0 c 0,0.99780623 2.1166666,1.1188604 2.1166666,2.1166666 0,0.9978062 -2.1166666,1.1188605 -2.1166666,2.1166667 0,0.9978062 2.1166666,1.1188604 2.1166666,2.1166666 0,0.9978062 -2.1166666,1.1188605 -2.1166666,2.1166667 h 0.5291666 c 0,-0.9978062 2.1166667,-1.1188605 2.1166667,-2.1166667 0,-0.9978062 -2.1166667,-1.1188604 -2.1166667,-2.1166666 0,-0.9978062 2.1166667,-1.1188605 2.1166667,-2.1166667 C 7.4083335,1.1188604 5.2916668,0.99780623 5.2916668,0 Z" />
  </g>
  <metadata
     id="metadata33">
    <rdf:RDF>
      <cc:Work
         rdf:about="">
        <cc:license
           rdf:resource="http://creativecommons.org/licenses/by-sa/4.0/" />
      </cc:Work>
      <cc:License
         rdf:about="http://creativecommons.org/licenses/by-sa/4.0/">
        <cc:permits
           rdf:resource="http://creativecommons.org/ns#Reproduction" />
        <cc:permits
           rdf:resource="http://creativecommons.org/ns#Distribution" />
        <cc:requires
           rdf:resource="http://creativecommons.org/ns#Notice" />
        <cc:requires
           rdf:resource="http://creativecommons.org/ns#Attribution" />
        <cc:permits
           rdf:resource="http://creativecommons.org/ns#DerivativeWorks" />
        <cc:requires
           rdf:resource="http://creativecommons.org/ns#ShareAlike" />
      </cc:License>
    </rdf:RDF>
  </metadata>
</svg>

<svg width="32" height="32" viewBox="0 0 8.467 8.467" xmlns="http://www.w3.org/2000/svg"><path style="fill:#000;fill-opacity:1;stroke:none;stroke-width:.999999px;stroke-linecap:butt;stroke-linejoin:miter;stroke-opacity:1" d="M4 0c0 3.771 8 4.229 8 8s-8 4.229-8 8 8 4.229 8 8-8 4.229-8 8h2c0-3.771 8-4.229 8-8s-8-4.229-8-8 8-4.229 8-8-8-4.229-8-8H4z" transform="scale(.26458)"/><path style="fill:#000;fill-opacity:1;stroke:none;stroke-width:.264583px;stroke-linecap:butt;stroke-linejoin:miter;stroke-opacity:1" d="M4.763 0c0 .998 2.116 1.119 2.116 2.117 0 .997-2.116 1.119-2.116 2.116 0 .998 2.116 1.12 2.116 2.117 0 .998-2.116 1.119-2.116 2.117h.529c0-.998 2.116-1.12 2.116-2.117 0-.998-2.116-1.119-2.116-2.117 0-.997 2.116-1.119 2.116-2.116 0-.998-2.116-1.12-2.116-2.117Z"/></svg>
